X:1
T: Miss Pringle's Reel
C:Robert Mackintosh
R:Reel
Q: 232
K:C
M:4/4
L:1/8
|:f|ec de cC CE|FA GE Dd df|ec de cC Ce|fa ge c1/2c1/2c cf|
ec de cC CE|FA GE Dd df|ec dB cG EC|FA GE C1/2C1/2C CF|
EC G,C EF Gc|EG cE dD DF|EC G,C E1/2D1/2E1/2F1/2 GE|FA GE C1/2C1/2C CF|
EC G,C E1/2D1/2E1/2F1/2 Gc|EG ce dD DF|EG AF BG ca|ge fd c1/2c1/2c c:|
